src/img/ic_flecha.svg

<svg width="32" height="32" viewBox="0 0 32 32" fill="none" xmlns="http://www.w3.org/2000/svg">
<path d="M22.9844 10.7578C23.1094 10.6328 23.25 10.5781 23.4062 10.5938C23.5781 10.5938 23.7266 10.6562 23.8516 10.7812C23.9609 10.8906 24.0078 11.0312 23.9922 11.2031C23.9922 11.3594 23.9375 11.4922 23.8281 11.6016L16.7031 18.7031C16.5156 18.9062 16.2812 19.0078 16 19.0078C15.7344 19.0078 15.5 18.9062 15.2969 18.7031L8.17188 11.6016C8.0625 11.4766 8.00781 11.3359 8.00781 11.1797C8.00781 11.0078 8.0625 10.8672 8.17188 10.7578C8.29688 10.6328 8.4375 10.5703 8.59375 10.5703C8.76562 10.5703 8.90625 10.6328 9.01562 10.7578L16 17.7422L22.9844 10.7578Z" fill="#EC7000"/>
</svg>

<svg width="32" height="32" fill="none" xmlns="http://www.w3.org/2000/svg"><path d="M22.984 10.758a.505.505 0 01.422-.164.61.61 0 01.446.187c.109.11.156.25.14.422 0 .156-.055.29-.164.399l-7.125 7.101a.917.917 0 01-.703.305.966.966 0 01-.703-.305l-7.125-7.101a.624.624 0 01-.164-.422c0-.172.055-.313.164-.422a.583.583 0 01.422-.188c.172 0 .312.063.422.188L16 17.742l6.984-6.984z" fill="#EC7000"/></svg>
